X: 19972
T: Jim Connolly's
R: jig
M: 6/8
K: Dmajor
A|"D"DCD FED|"G"GAB "A"AFE|"D"DCD FED|"Em"EFE "A"ECA,|
"D"DCD FED|"G"GAB "D"AFA|"G"~d2B "D"AFD|"A"EDC "D"D2:|
|:A|"D"dcd fed|"G"BdB "D"AFA|dcd fed|"Em"efe "A"ecA|
"D"dcd fed|"G"BdB "D"AFA|"G"~d2B "D"AFD|"A"EDC "D"D2:|

